X: 35487
T: Rozsa
R: waltz
M: 3/4
K: Dminor
B AF|D2DF Ad|f2fd AD|B2GA Bc|AB AG FE|
D2DF Ad|f2fd AD|1 B2GA Bc|A3B AF:|2 B2GA Bc|A4A2||
B2def2|A2def2|efg2fe|f2e2d2|B2def2|
A2def2|efg2fe|d3c BA|Bd ef ed|Ad ef ed|efg2fe|
f2e2d2|Bd ef ed|Ad ef ed|efg2fe|d3||

